X: 16042
T: Green Cottage, The
R: polka
M: 2/4
K: Gdorian
d>c|:BG G/A/G/F/|DG GA|B>A GF|Bc dc|
BG G/A/G/F/|DG Gc|d>c BA|1 G2 d>c:|2 G3 c||
|:dg g>a|gf dc|dg g>a|g2 ga|
b2 (a/b/a)|gf d>c|dG G/A/B/c/|1 d3 c:|2 d2 d>c||

